svgs/thin/floppy-disk-circle-xmark.svg

<svg xmlns="http://www.w3.org/2000/svg" viewBox="0 0 576 512"><!--! Font Awesome Pro 6.0.0-alpha3 by @fontawesome - https://fontawesome.com License - https://fontawesome.com/license (Commercial License) --><path d="M488.5 311.5c-3.125-3.125-8.152-3.17-11.28-.0453L432 356.7l-45.25-45.26c-3.125-3.125-8.152-3.083-11.28 .0422s-3.161 8.145-.0359 11.27L420.7 368l-45.25 45.26c-3.125 3.125-3.086 8.145 .0391 11.27c3.127 3.127 8.146 3.169 11.27 .0422L432 379.3l45.25 45.26c3.127 3.127 8.146 3.082 11.27-.0453c3.125-3.125 3.164-8.142 .0391-11.27L443.3 368l45.25-45.26C491.7 319.6 491.7 314.6 488.5 311.5zM432 224C352.5 224 288 288.5 288 368s64.47 144 144 144s144-64.47 144-144S511.5 224 432 224zM432 496c-70.58 0-128-57.42-128-128s57.42-128 128-128s128 57.42 128 128S502.6 496 432 496zM280 464H64c-26.47 0-48-21.53-48-48V96c0-26.47 21.53-48 48-48v104C64 174.1 81.94 192 104 192h176C302.1 192 320 174.1 320 152V56.57c3.201 2.062 6.242 4.408 9 7.162l87.28 87.28c7.312 7.312 12.31 16.55 14.53 26.69C431.6 181.4 434.9 184 438.6 184c.5625 0 1.125-.0625 1.688-.1875c4.312-.9375 7.062-5.188 6.125-9.516c-2.844-13.14-9.375-25.09-18.84-34.59l-87.28-87.28C327.1 39.25 309.6 32 291 32H64C28.65 32 0 60.65 0 96v320c0 35.35 28.65 64 64 64h216C284.4 480 288 476.4 288 472S284.4 464 280 464zM80 48h211c4.459 0 8.777 .7207 13 1.771V152c0 13.23-10.78 24-24 24h-176C90.78 176 80 165.2 80 152V48zM224 256c15.72 0 30.66 4.984 43.19 14.39c3.531 2.688 8.531 1.938 11.22-1.578C281.1 265.3 280.3 260.3 276.8 257.6C261.5 246.1 243.2 240 224 240c-48.53 0-88 39.47-88 88S175.5 416 224 416c12.22 0 24.06-2.469 35.19-7.328c4.062-1.766 5.906-6.484 4.156-10.53c-1.781-4.031-6.5-5.875-10.53-4.125C243.7 397.1 233.1 400 224 400c-39.69 0-72-32.3-72-72S184.3 256 224 256z"/></svg>

<svg xmlns="http://www.w3.org/2000/svg" viewBox="0 0 576 512"><!-- Font Awesome Pro 6.0.0-alpha2 by @fontawesome - https://fontawesome.com License - https://fontawesome.com/license (Commercial License) --><path d="M488.562 311.43C485.438 308.305 480.375 308.305 477.25 311.43L432 356.688L386.75 311.43C383.625 308.305 378.562 308.305 375.438 311.43S372.313 319.617 375.438 322.742L420.688 368L375.438 413.258C372.313 416.383 372.313 421.445 375.438 424.57C378.564 427.697 383.623 427.697 386.75 424.57L432 379.312L477.25 424.57C480.377 427.697 485.436 427.697 488.562 424.57C491.687 421.445 491.687 416.383 488.562 413.258L443.312 368L488.562 322.742C491.688 319.617 491.688 314.555 488.562 311.43ZM432 224C352.471 224 288 288.471 288 368S352.471 512 432 512S576 447.529 576 368S511.529 224 432 224ZM432 496C361.42 496 304 438.58 304 368S361.42 240 432 240S560 297.42 560 368S502.58 496 432 496ZM280 464H64C37.533 464 16 442.467 16 416V96C16 69.533 37.533 48 64 48V152C64 174.062 81.938 192 104 192H280C302.062 192 320 174.062 320 152V56.572C323.201 58.635 326.242 60.98 329 63.734L416.281 151.016C423.594 158.328 428.594 167.562 430.813 177.703C431.625 181.438 434.938 184 438.625 184C439.187 184 439.75 183.938 440.312 183.812C444.625 182.875 447.375 178.625 446.437 174.297C443.594 161.156 437.062 149.203 427.594 139.703L340.312 52.422C327.125 39.25 309.625 32 291 32H64C28.654 32 0 60.654 0 96V416C0 451.346 28.654 480 64 480H280C284.406 480 288 476.422 288 472S284.406 464 280 464ZM80 48H291C295.459 48 299.777 48.721 304 49.771V152C304 165.234 293.219 176 280 176H104C90.781 176 80 165.234 80 152V48ZM224 256C239.719 256 254.656 260.984 267.188 270.391C270.719 273.078 275.719 272.328 278.406 268.812C281.062 265.266 280.344 260.25 276.812 257.609C261.469 246.094 243.219 240 224 240C175.469 240 136 279.469 136 328S175.469 416 224 416C236.219 416 248.062 413.531 259.188 408.672C263.25 406.906 265.094 402.188 263.344 398.141C261.562 394.109 256.844 392.266 252.812 394.016C243.688 397.984 234 400 224 400C184.312 400 152 367.703 152 328S184.312 256 224 256Z"/></svg>
